content/media/img/event.svg

<?xml version="1.0" encoding="UTF-8" standalone="no"?>
<!-- Generator: Adobe Illustrator 15.0.0, SVG Export Plug-In . SVG Version: 6.00 Build 0)  -->

<svg
   xmlns:dc="http://purl.org/dc/elements/1.1/"
   xmlns:cc="http://creativecommons.org/ns#"
   xmlns:rdf="http://www.w3.org/1999/02/22-rdf-syntax-ns#"
   xmlns:svg="http://www.w3.org/2000/svg"
   xmlns="http://www.w3.org/2000/svg"
   xmlns:sodipodi="http://sodipodi.sourceforge.net/DTD/sodipodi-0.dtd"
   xmlns:inkscape="http://www.inkscape.org/namespaces/inkscape"
   version="1.1"
   id="Layer_1"
   x="0px"
   y="0px"
   width="205"
   height="180"
   viewBox="0 0 205 180"
   enable-background="new 0 0 100 100"
   xml:space="preserve"
   inkscape:version="0.48.4 r9939"
   sodipodi:docname="event.svg"><metadata
     id="metadata9"><rdf:RDF><cc:Work
         rdf:about=""><dc:format>image/svg+xml</dc:format><dc:type
           rdf:resource="http://purl.org/dc/dcmitype/StillImage" /></cc:Work></rdf:RDF></metadata><defs
     id="defs7" /><sodipodi:namedview
     pagecolor="#ffffff"
     bordercolor="#666666"
     borderopacity="1"
     objecttolerance="10"
     gridtolerance="10"
     guidetolerance="10"
     inkscape:pageopacity="0"
     inkscape:pageshadow="2"
     inkscape:window-width="928"
     inkscape:window-height="594"
     id="namedview5"
     showgrid="false"
     inkscape:zoom="1.18"
     inkscape:cx="32.438367"
     inkscape:cy="45.974576"
     inkscape:window-x="0"
     inkscape:window-y="0"
     inkscape:window-maximized="0"
     inkscape:current-layer="Layer_1" /><path
     d="m 154.42899,111.49663 c 0,-18.090493 0,-88.412787 0,-88.412787 H 149.54404 50.401514 L 39.664152,29.431418 V 156.91616 H 149.54213 V 145.5427 h 15.79372 c 0,0.002 -10.90686,-8.75481 -10.90686,-34.04607 z M 147.20346,92.400577 H 128.39308 V 72.270406 h 18.81038 V 92.400577 z M 101.16688,49.045481 V 69.175654 H 80.133989 V 49.045481 h 21.032891 z m 3.09666,0 h 21.03479 V 69.175654 H 104.26354 V 49.045481 z m -46.636494,0 H 77.037332 V 69.175654 H 57.627046 V 49.045481 z m 0,23.226829 H 77.037332 V 92.400577 H 57.627046 V 72.27231 z m 0,23.224927 h 19.410286 v 16.003193 c 0,1.44358 0.03047,2.8167 0.0857,4.12698 H 57.627046 V 95.497237 z M 80.133989,111.50043 V 95.497237 h 21.032891 v 16.003193 c 0,1.44358 0.0305,2.8167 0.0857,4.12698 H 80.223499 c -0.05904,-1.30457 -0.0895,-2.67577 -0.0895,-4.12698 z m 0,-19.099853 V 72.270406 H 101.16688 V 92.400577 H 80.133989 z M 104.26354,72.27231 h 21.03479 V 92.400577 H 104.26354 V 72.27231 z m 42.93992,-3.09856 H 128.39308 V 49.045481 h 18.81038 V 69.17375 z m -69.89379,49.55032 c 0.817015,10.23458 3.342333,16.16698 5.860033,19.59501 H 62.978588 c -0.491353,-0.43612 -1.314081,-1.35788 -2.176801,-3.14998 -1.300749,-2.70434 -2.822414,-7.70355 -3.117606,-16.44503 h 19.62549 z m 9.988908,19.59501 c -2.42819,-2.23202 -5.88479,-7.48835 -6.882729,-19.59501 h 21.025281 c 0.81701,10.23458 3.34424,16.16698 5.86003,19.59501 H 87.298578 z m 24.129552,0 c -2.42819,-2.23202 -5.88479,-7.48835 -6.88082,-19.59501 h 21.02335 c 0.81702,10.23458 3.34424,16.16698 5.86004,19.59501 h -20.00257 z m -7.07509,-22.69167 c -0.0552,-1.30647 -0.0895,-2.67577 -0.0895,-4.12698 V 95.497237 h 21.0348 v 16.003193 c 0,1.44358 0.0305,2.8167 0.0856,4.12698 h -21.031 z m 24.04004,-4.12698 V 95.497237 h 18.81038 v 15.999393 3.10047 c 0,0.3485 0.003,0.68751 0.008,1.03031 h -18.72889 c -0.0591,-1.30457 -0.0895,-2.67577 -0.0895,-4.12698 z m 13.92353,38.19211 H 46.889684 V 33.554579 l 3.51183,-2.075864 c 0,19.473133 0,67.360862 0,84.152495 0,27.87372 10.908764,29.91531 10.908764,29.91531 h 81.010132 l -0.003,4.14602 0,0 z m 7.22552,-11.37346 h -7.22552 -6.76085 c -2.42818,-2.23202 -5.88478,-7.48835 -6.88082,-19.59501 h 18.61613 c 0.32756,7.61595 1.57879,14.17491 3.74417,19.59501 h -1.49311 z"
     id="path3"
     inkscape:connector-curvature="0"
     style="fill:#010101" /></svg>

<svg xmlns="http://www.w3.org/2000/svg" width="205" height="180" viewBox="0 0 205 180"><path d="M154.43 111.497V23.084H50.4L39.664 29.43v127.486h109.878v-11.373h15.794c0 .002-10.907-8.755-10.907-34.046zM147.202 92.4h-18.81V72.27h18.81V92.4zm-46.036-43.355v20.13H80.134v-20.13h21.033zm3.097 0h21.034v20.13h-21.034v-20.13zm-46.637 0h19.41v20.13h-19.41v-20.13zm0 23.227h19.41v20.13h-19.41V72.27zm0 23.225h19.41V111.5c0 1.444.03 2.817.086 4.127H57.627v-20.13zM80.134 111.5V95.497h21.033V111.5c0 1.444.03 2.817.086 4.127h-21.03a91.258 91.258 0 0 1-.09-4.127zm0-19.1V72.27h21.033V92.4H80.134zm24.13-20.128h21.034v20.13h-21.034V72.27zm42.94-3.098h-18.81v-20.13h18.81v20.13zm-69.894 49.55c.817 10.235 3.342 16.167 5.86 19.595H62.98c-.493-.44-1.315-1.36-2.178-3.15-1.3-2.707-2.823-7.706-3.118-16.448H77.31zm9.99 19.595c-2.43-2.235-5.886-7.49-6.884-19.598h21.025c.82 10.235 3.347 16.167 5.86 19.595h-20zm24.128 0c-2.428-2.235-5.885-7.49-6.88-19.598h21.023c.82 10.235 3.347 16.167 5.86 19.595h-20zm-7.075-22.695a97.33 97.33 0 0 1-.09-4.127V95.496H125.3V111.5c0 1.444.03 2.817.086 4.127h-21.03zm24.04-4.127V95.496h18.81v19.1c0 .35.003.688.008 1.03h-18.725a91.17 91.17 0 0 1-.09-4.127zm13.924 38.192H46.89V33.555l3.512-2.076v84.15c0 27.873 10.908 29.915 10.908 29.915h81.01l-.003 4.146zm7.225-11.374h-13.985c-2.43-2.233-5.886-7.49-6.882-19.596h18.616c.33 7.616 1.58 14.175 3.747 19.595h-1.493z" fill="#010101"/></svg>
